X: 32107
T: Perthshire Volunteers, The
R: strathspey
M: 4/4
K: Amajor
F/|:E>A c/d/ec2A>c|d>B d/c/B/A/ G<B B>d|E>A c/d/ec2A>c|1 d>B e>d c<A A>F:|2 d>B e>d c<A A>g||
a>e a/g/f/e/a2e>c|d>B d/c/B/A/ G<B B>g|a>e a/g/f/e/a2e>c|d>B d/c/N/A/ E<A A>d|
c>e G>e F>d E>c|d>B d/c/B/A/ G<B B>d|c>e d>f e<a g<b|a/g/f/e/ a>e c<A A>||

